icons/required.svg

<svg width="16" height="17" viewBox="0 0 16 17" fill="none" xmlns="http://www.w3.org/2000/svg">
<path d="M8.00293 14.7578C7.61621 14.7578 7.31738 14.6543 7.10645 14.4473C6.89551 14.2441 6.79395 13.9531 6.80176 13.5742C6.80176 13.5312 6.80176 13.4785 6.80176 13.416C6.80566 13.3574 6.81348 13.291 6.8252 13.2168L7.08887 10.041L4.66309 11.7461C4.31934 12.0078 3.95996 12.1387 3.58496 12.1387C3.24902 12.1387 2.97168 12.0254 2.75293 11.7988C2.53418 11.5723 2.4248 11.2891 2.4248 10.9492C2.4248 10.6758 2.49316 10.4395 2.62988 10.2402C2.77051 10.0371 2.97363 9.88086 3.23926 9.77148L6.0752 8.5L3.23926 7.22852C2.97363 7.11914 2.77051 6.96484 2.62988 6.76562C2.49316 6.5625 2.4248 6.32617 2.4248 6.05664C2.4248 5.71289 2.53418 5.42773 2.75293 5.20117C2.97168 4.97461 3.24902 4.86133 3.58496 4.86133C3.95996 4.86133 4.31934 4.99219 4.66309 5.25391L7.08887 6.96484L6.8252 3.7832C6.81348 3.70898 6.80566 3.64258 6.80176 3.58398C6.80176 3.52148 6.80176 3.46875 6.80176 3.42578C6.79395 3.04688 6.89551 2.75586 7.10645 2.55273C7.31738 2.3457 7.61621 2.24219 8.00293 2.24219C8.38965 2.24219 8.68652 2.3457 8.89355 2.55273C9.10449 2.75586 9.20801 3.04688 9.2041 3.42578C9.2041 3.46875 9.20215 3.52148 9.19824 3.58398C9.19434 3.64258 9.18848 3.70898 9.18066 3.7832L8.91113 6.96484L11.3428 5.25391C11.6826 4.99219 12.04 4.86133 12.415 4.86133C12.751 4.86133 13.0283 4.97461 13.2471 5.20117C13.4658 5.42773 13.5752 5.71289 13.5752 6.05664C13.5752 6.32617 13.5049 6.5625 13.3643 6.76562C13.2275 6.96484 13.0283 7.11914 12.7666 7.22852L9.9248 8.5L12.7666 9.77148C13.0283 9.88086 13.2275 10.0371 13.3643 10.2402C13.5049 10.4395 13.5752 10.6758 13.5752 10.9492C13.5752 11.2891 13.4658 11.5723 13.2471 11.7988C13.0283 12.0254 12.751 12.1387 12.415 12.1387C12.04 12.1387 11.6826 12.0078 11.3428 11.7461L8.91113 10.041L9.18066 13.2168C9.18848 13.291 9.19434 13.3574 9.19824 13.416C9.20215 13.4785 9.2041 13.5312 9.2041 13.5742C9.20801 13.9531 9.10449 14.2441 8.89355 14.4473C8.68652 14.6543 8.38965 14.7578 8.00293 14.7578Z" fill="#FF4949"/>
</svg>

<svg width="16" height="17" viewBox="0 0 16 17" fill="none" xmlns="http://www.w3.org/2000/svg">
<path d="M8.003 14.758c-.387 0-.686-.104-.897-.31-.21-.204-.312-.495-.304-.874v-.158a2.2 2.2 0 0 1 .023-.2l.264-3.175-2.426 1.705c-.344.262-.703.393-1.078.393a1.11 1.11 0 0 1-.832-.34 1.174 1.174 0 0 1-.328-.85c0-.273.068-.51.205-.709.14-.203.344-.36.61-.469L6.074 8.5 3.24 7.229a1.352 1.352 0 0 1-.61-.463 1.24 1.24 0 0 1-.204-.71c0-.343.11-.628.328-.855a1.11 1.11 0 0 1 .832-.34c.375 0 .734.131 1.078.393l2.426 1.71-.264-3.18a2.25 2.25 0 0 1-.023-.2v-.158c-.008-.38.094-.67.304-.873.211-.207.51-.31.897-.31s.684.103.89.31c.211.203.315.494.311.873 0 .043-.002.095-.006.158-.004.059-.01.125-.017.2l-.27 3.18 2.432-1.71c.34-.262.697-.393 1.072-.393.336 0 .613.114.832.34.219.227.328.512.328.856 0 .27-.07.505-.21.709a1.334 1.334 0 0 1-.598.463L9.925 8.5l2.842 1.271c.261.11.46.266.597.47a1.2 1.2 0 0 1 .211.708c0 .34-.11.623-.328.85a1.11 1.11 0 0 1-.832.34c-.375 0-.732-.131-1.072-.393L8.91 10.041l.27 3.176c.007.074.013.14.017.199a2.6 2.6 0 0 1 .006.158c.004.38-.1.67-.31.873-.207.207-.504.31-.891.31Z" fill="currentColor"/>
</svg>
